X:1
T:Title
%%score { ( 1 3 ) | ( 2 4 ) }
L:1/8
Q:1/4=100
M:4/4
K:Eb
V:1 treble nm="Grand Piano"
V:3 treble 
V:2 bass 
V:4 bass 
V:1
 G4 A2 F2 | B4 G4 | z2 F2 G2 A2 | z4 F4 | B2 =A2 d2 c2 | B4 c4 | B2 G2 =A,4 | [B,DF]8 | B4 A2 F2 | %9
w: S.~M.~Bixby * *|||||||||
 E4 G4 | c2 B2 B2 E2 | z4 F4 | B2 c2 [Ad]2 [Ge]2 | z4 [Ec]4 | B2 z2 [B,G]2 z2 | E8 |] %16
w: |||||||
V:2
 [E,B,E]4 [F,B,D]2 [A,B,D]2 | [G,B,E]4 [E,B,E]4 | z4 E4 | [B,,B,]4 [B,D]4 | E4 z4 | %5
 [G,B,E]4 [A,E]4 | G,2 E,2 z2 E2 | B,,8 | [G,B,E]4 [F,B,D]2 [A,B,D]2 | [G,B,]4 [E,B,E]4 | %10
 E2- [F,B,E]2 [G,B,E]2 [A,C]2 | E4 D4 | E2- [A,E]2 [F,B,]2 [E,B,]2 | z4 E,2 z2 | %14
 B,,2- [B,,B,]2 z2 A,2 | [E,G,]8 |] %16
V:3
 x8 | x8 | E4 z4 | [EG]4 z2 A,2 | x8 | x8 | z4 [EG]2 z2 | x8 | x8 | x8 | x8 | G4 z2 A,2 | x8 | %13
 [B,EB]4 z2 F,2 | E2- [EG]2 D2- [DF]2 | x8 |] %16
V:4
 x8 | x8 | [A,C]4 [G,B,]2 [F,C]2 | x8 | [G,B,]2 [_G,C]2 [G,=A,E]2 [G,A,E]2 | x8 | [B,E]4 C,4 | x8 | %8
 x8 | x8 | A,2 z2 z4 | B,8 | [G,B,]2 z2 z4 | G,,4 A,,4 | G,2 z2 B,,4 | x8 |] %16

